X:1
T:Title
%%score { ( 1 2 ) | ( 3 4 ) }
L:1/8
Q:1/4=110
M:4/4
K:Bb
V:1 treble nm="Grand Piano"
V:2 treble 
V:3 bass 
V:4 bass 
V:1
 z4 G2 z2 | z4 G2 z2 | [F,DF]2 [DFG]2 [DFA]2 [DFB]2 | d8 | z4 c2 z2 | [FBd]2 B2 B2 A>B | %6
 [=EGc]2 [CEG]2 [CFA]2 [CEB]2 | [CFAc]6 z2 | z4 G2 z2 | z4 G2 z2 | [F,DF]2 [DG]2 [DA]2 [DB]2 | d8 | %12
 [CFc]2 [CF]2 [FB]2 [FA]2 | [DG]2 [D^FA]2 [DAc]2 [DGB]2 | [CFA]2 [DFB]2 [C=EA]2 [EG]2 | %15
[M:3/4] [F,A,CF]2 F>F F2 |[M:1/4] F2 |[M:4/4] E4 F4 | [FAd]2 [EAc]2 [EA]2 [EF]2 | B4 z4 | %20
 [F,DF]2 F>F F2 F2 | E4 F4 | [FAd]2 [EAc]2 [EA]2 [EF]2 | B2- [DGB]2 [GAc]2 [GAc]2 | %24
 [^FAd]2 d>d d2 d2 | [F=Bd]4 [GBe]2 [FBd]2 | [FGd]2 [EGc]2 [EGc]4 | [EAc]4 [FAd]2 [EAc]2 | %28
 [DAc]2 [DGB]2 [DGB]4 | [EGc]2 [EGc]2 [FG=Bd]2 [FGBd]2 | [_Adf]2 [Gce]2 [FG=Bd]2 [EGc]2 | %31
 z4 [CEFA]4 | [DFB]6[K:bass] z2 |] %33
V:2
 [DF]2 [DF]2 _D4 | [F,DF]2 [F,DF]2 _D4 | x8 | [DFB]2 [DFB]2 [DFB]2 [DFB]2 | [FAe]2 [EFAc]2 [EFA]4 | %5
 x8 | x8 | x8 | [F,DF]2 [F,DF]2 _D4 | [F,DF]2 [F,DF]2 _D4 | x8 | [DFB]2 [DFB]2 [DFB]2 [DFB]2 | x8 | %13
 x8 | x8 |[M:3/4] x6 |[M:1/4] x2 |[M:4/4] z2 C2 z2 E2 | x8 | D2 D2 [_DA]2 [DG]2 | x8 | %21
 z2 C2 z2 E2 | x8 | [DG]2 z2 z4 | x8 | x8 | x8 | x8 | x8 | x8 | x8 | [DFB]4 z2 F,2 | %32
 B,2[K:bass] F,2 B,,2 z2 |] %33
V:3
 [B,,F,]2 [B,,F,]2 z2[K:treble] A>B | B,,2 B,,2 z2[K:treble] A>B | %2
 B,,2 [F,,F,]2 [B,,F,]2 [F,,F,]2 | [B,,F,]2 [F,,F,]2 [B,,F,]2 [F,,F,]2 | %4
 [C,F,]2 F,2 z2[K:treble] =B>c | [B,,F,]2 [F,B,DF]2 [F,B,DF]4 | %6
 [C,,C,]2 [B,,B,]2 [A,,A,]2 [G,,G,]2 | [F,,F,]2 E,2 D,2 C,2 | B,,2 B,,2 z2[K:treble] A>B | %9
 B,,2 B,,2 z2[K:treble] A>B | B,,2 [F,,F,]2 [B,,F,]2 [F,,F,]2 | %11
 [B,,F,]2 [F,,F,]2 [B,,F,]2 [F,,F,]2 | [A,,A,]2 [A,,A,]2 [D,D]2 [C,C]2 | %13
 [B,,B,]2 [A,,A,]2 [^F,,^F,]2 [G,,G,]2 | [C,,C,]4 z2 B,2 |[M:3/4] F,,2 F,>F, F,2 |[M:1/4] z2 | %17
[M:4/4] z2 A,2 z2 C2 | F,,2 F,2 C2 F,2 | [B,,F,]2 [B,,F,]2 [B,,=E,]2 [B,,E,]2 | B,,2 F,>F, F,2 z2 | %21
 z2 A,2 z2 C2 | F,,2 F,2 C2 F,2 | [G,,G,]4 [E,,E,]2 [E,,E,]2 | [D,,D,]2 D>D D2 D2 | %25
 G,,2 G,2 =B,2 G,2 | C,2 G,2 C2 G,2 | F,,2 F,2 A,2 F,2 | G,,2 G,2 B,2 G,2 | %29
 [E,,E,]2 [E,,E,]2 [D,,D,]2 [D,,D,]2 | [=B,,,=B,,]2 [C,,C,]2 [D,,D,]2 [E,,E,]2 | %31
 [F,,F,]2 [F,,F,]2 [F,,F,]2 F,,2 | B,,2 F,,2 B,,,2 z2 |] %33
V:4
 z4 [B,,=E,]4[K:treble] | z4 [B,,=E,]4[K:treble] | x8 | x8 | z4 F,4[K:treble] | x8 | x8 | x8 | %8
 z4 [B,,=E,]4[K:treble] | z4 [B,,=E,]4[K:treble] | x8 | x8 | x8 | x8 | z4 [C,,C,]4 |[M:3/4] x6 | %16
[M:1/4] x2 |[M:4/4] F,,4 A,,4 | x8 | x8 | x8 | F,,4 A,,4 | x8 | x8 | x8 | x8 | x8 | x8 | x8 | x8 | %30
 x8 | x8 | x8 |] %33

